actions/24/draw-calligraphic.svg

<?xml version="1.0" encoding="UTF-8"?>
<!-- Created with Inkscape (http://www.inkscape.org/) -->
<svg width="24" height="24" version="1.1" xmlns="http://www.w3.org/2000/svg" xmlns:cc="http://creativecommons.org/ns#" xmlns:dc="http://purl.org/dc/elements/1.1/" xmlns:rdf="http://www.w3.org/1999/02/22-rdf-syntax-ns#">
	<defs>
		<radialGradient id="b" cx="7.7344" cy="16.887" r="9.75" gradientTransform="matrix(1.641 0 0 1.641 -7.6924 -7.7124)" gradientUnits="userSpaceOnUse">
			<stop stop-color="#ffffff" stop-opacity=".74858" offset="0"/>
			<stop stop-color="#ffffff" stop-opacity=".60511" offset="1"/>
		</radialGradient>
		<radialGradient id="a" cx="325.05" cy="-100.53" r="7.254" gradientTransform="matrix(1.8518 0 0 1.7921 -9966.2 5022.4)" gradientUnits="userSpaceOnUse">
			<stop stop-color="#213851" stop-opacity=".9059" offset="0"/>
			<stop stop-color="#27303a" stop-opacity="0" offset="1"/>
		</radialGradient>
	</defs>
	<metadata>
		<rdf:RDF>
			<cc:Work rdf:about="">
				<dc:format>image/svg+xml</dc:format>
				<dc:type rdf:resource="http://purl.org/dc/dcmitype/StillImage"/>
				<dc:title/>
			</cc:Work>
		</rdf:RDF>
	</metadata>
	<g transform="translate(9379.3 -4835.2)">
		<path d="m-9364.9 4839.2-1.2188 1.2188 0.7188 0.6875c-2.1213 2.1213-6.1912 4.2929-8.3125 5-0.05 2.1212-0.8711 6.7505-1.5625 9.125 2.3745-0.6914 7.0038-1.5122 9.125-1.5625 0.7071-2.1213 2.8787-6.1912 5-8.3125l0.6875 0.7187 1.2187-1.2187-2.8437-2.8125zm-4.0938 8.8125 0.4688 0.4688 0.4687 0.4687-3.5 3.5-0.4687-0.4687-0.4688-0.4688z" color="#000000" fill="#090d11" fill-opacity=".76621" style="paint-order:normal"/>
		<path d="m-9364.9 4839.2-1.2188 1.2188 0.7188 0.6875c-2.1213 2.1213-6.1912 4.2929-8.3125 5-0.05 2.1212-0.8711 6.7505-1.5625 9.125 2.3745-0.6914 7.0038-1.5122 9.125-1.5625 0.7071-2.1213 2.8787-6.1912 5-8.3125l0.6875 0.7187 1.2187-1.2187-2.8437-2.8125zm-4.0938 8.8125 0.4688 0.4688 0.4687 0.4687-3.5 3.5-0.4687-0.4687-0.4688-0.4688z" color="#000000" fill="url(#a)" style="font-variant-east_asian:normal;paint-order:normal"/>
		<path transform="translate(-9379.3 4835.2)" d="m14.375 2.2812-0.84375 0.84375-1.2188 1.2188-0.875 0.875 0.59375 0.53125c-2.0659 1.6823-5.2206 3.4589-6.8438 4l-0.8125 0.25v0.84375c-0.044 1.853-0.88555 6.6264-1.5312 8.8438l-0.59375 2.0938 2.0938-0.625c2.2174-0.6457 6.9592-1.4561 8.8125-1.5l0.84375-0.03125 0.28125-0.78125c0.5403-1.621 2.2884-4.7772 3.9688-6.8438l0.5625 0.5625 0.84375-0.84375 1.2188-1.2188 0.875-0.875-0.875-0.84375-2.8438-2.8125-2.8125-2.8438-0.84375-0.84375zm0 1.6875 2.8125 2.8438 2.8438 2.8125-1.2188 1.2188-0.6875-0.71875c-2.1213 2.1213-4.2929 6.1912-5 8.3125-2.1212 0.0503-6.7505 0.8711-9.125 1.5625 0.6914-2.3745 1.5125-7.0038 1.5625-9.125 2.1213-0.7071 6.1912-2.8787 8.3125-5l-0.71875-0.6875 1.2188-1.2188zm-4.0938 8.8125-3.5 3.5 0.46875 0.46875 0.46875 0.46875 3.5-3.5-0.46875-0.46875-0.46875-0.46875z" color="#000000" fill="url(#b)" fill-opacity=".99858" style="block-progression:tb;font-variant-east_asian:normal;paint-order:normal;text-indent:0;text-transform:none"/>
	</g>
</svg>

<?xml version="1.0" encoding="UTF-8" standalone="no"?>
<!-- Created with Inkscape (http://www.inkscape.org/) -->

<svg
   xmlns:dc="http://purl.org/dc/elements/1.1/"
   xmlns:cc="http://creativecommons.org/ns#"
   xmlns:rdf="http://www.w3.org/1999/02/22-rdf-syntax-ns#"
   xmlns:svg="http://www.w3.org/2000/svg"
   xmlns="http://www.w3.org/2000/svg"
   xmlns:sodipodi="http://sodipodi.sourceforge.net/DTD/sodipodi-0.dtd"
   xmlns:inkscape="http://www.inkscape.org/namespaces/inkscape"
   width="24"
   height="24"
   id="svg13094"
   version="1.1"
   inkscape:version="0.48.3.1 r9886"
   sodipodi:docname="draw-calligraphic.svg">
  <sodipodi:namedview
     id="base"
     pagecolor="#ffffff"
     bordercolor="#666666"
     borderopacity="1.0"
     inkscape:pageopacity="0.0"
     inkscape:pageshadow="2"
     inkscape:zoom="22.627417"
     inkscape:cx="11.439163"
     inkscape:cy="13.216291"
     inkscape:document-units="px"
     inkscape:current-layer="layer1"
     showgrid="true"
     inkscape:snap-bbox="true"
     inkscape:bbox-paths="true"
     inkscape:bbox-nodes="true"
     inkscape:snap-bbox-edge-midpoints="true"
     inkscape:snap-bbox-midpoints="true"
     inkscape:object-paths="true"
     inkscape:snap-intersection-paths="true"
     inkscape:object-nodes="true"
     inkscape:snap-smooth-nodes="true"
     inkscape:snap-midpoints="true"
     inkscape:snap-object-midpoints="true"
     inkscape:snap-center="true"
     showguides="false"
     inkscape:guide-bbox="true"
     inkscape:window-width="1920"
     inkscape:window-height="1023"
     inkscape:window-x="-10"
     inkscape:window-y="35"
     inkscape:window-maximized="1"
     inkscape:snap-global="true"
     fit-margin-top="0"
     fit-margin-left="0"
     fit-margin-right="0"
     fit-margin-bottom="0"
     showborder="true"
     inkscape:showpageshadow="false">
    <sodipodi:guide
       orientation="0,1"
       position="-25.000005,930.61286"
       id="guide4700" />
    <sodipodi:guide
       orientation="0,1"
       position="576.71887,328.89388"
       id="guide4702" />
    <sodipodi:guide
       orientation="1,0"
       position="576.71899,489.70395"
       id="guide4706" />
    <sodipodi:guide
       orientation="1,0"
       position="54.999996,930.61286"
       id="guide4708" />
    <sodipodi:guide
       orientation="0,1"
       position="-25.000005,850.61296"
       id="guide4710" />
    <sodipodi:guide
       orientation="0,1"
       position="536.71887,408.8938"
       id="guide4712" />
    <sodipodi:guide
       orientation="1,0"
       position="496.71887,408.8938"
       id="guide4714" />
    <inkscape:grid
       type="xygrid"
       id="grid3216"
       empspacing="5"
       visible="true"
       enabled="true"
       snapvisiblegridlinesonly="true"
       originx="-24.999951px"
       originy="-219.00005px" />
    <sodipodi:guide
       orientation="-0.70710664,0.70710692"
       position="4.0000502,-246.00005"
       id="guide3847" />
    <sodipodi:guide
       orientation="0.70710594,0.70710762"
       position="5.0000502,-245.00005"
       id="guide3849" />
    <sodipodi:guide
       orientation="-0.70710681,0.70710676"
       position="7.0000502,-212.00005"
       id="guide3851" />
  </sodipodi:namedview>
  <defs
     id="defs13096" />
  <metadata
     id="metadata13099">
    <rdf:RDF>
      <cc:Work
         rdf:about="">
        <dc:format>image/svg+xml</dc:format>
        <dc:type
           rdf:resource="http://purl.org/dc/dcmitype/StillImage" />
        <dc:title />
      </cc:Work>
    </rdf:RDF>
  </metadata>
  <g
     transform="translate(9379.308,-4835.1988)"
     id="layer1"
     inkscape:groupmode="layer"
     inkscape:label="Camada 1">
    <path
       sodipodi:nodetypes="cccccccccccccccccc"
       inkscape:connector-curvature="0"
       style="color:#000000;fill:#27303a;fill-opacity:0.753280819999999968;fill-rule:nonzero;stroke:none;stroke-width:1;marker:none;visibility:visible;display:inline;overflow:visible;enable-background:accumulate"
       d="m -9364.933,4839.1675 -1.2188,1.2188 0.7188,0.6875 c -2.1213,2.1213 -6.1912,4.2929 -8.3125,5 -0.05,2.1212 -0.8711,6.7505 -1.5625,9.125 2.3745,-0.6914 7.0038,-1.5122 9.125,-1.5625 0.7071,-2.1213 2.8787,-6.1912 5,-8.3125 l 0.6875,0.7187 1.2187,-1.2187 -2.8437,-2.8125 z m -4.0938,8.8125 0.4688,0.4688 0.4687,0.4687 -3.5,3.5 -0.4687,-0.4687 -0.4688,-0.4688 z"
       id="path3006" />
    <path
       style="font-size:medium;font-style:normal;font-variant:normal;font-weight:normal;font-stretch:normal;text-indent:0;text-align:start;text-decoration:none;line-height:normal;letter-spacing:normal;word-spacing:normal;text-transform:none;direction:ltr;block-progression:tb;writing-mode:lr-tb;text-anchor:start;baseline-shift:baseline;color:#000000;fill:#f1f3f5;fill-opacity:0.90288714000000003;fill-rule:nonzero;stroke:none;stroke-width:2;marker:none;visibility:visible;display:inline;overflow:visible;enable-background:accumulate;font-family:Sans;-inkscape-font-specification:Sans"
       d="M 14.375 2.28125 L 13.53125 3.125 L 12.3125 4.34375 L 11.4375 5.21875 L 12.03125 5.75 C 9.96535 7.4323 6.8107 9.2089 5.1875 9.75 L 4.375 10 L 4.375 10.84375 C 4.331 12.69675 3.48945 17.4701 2.84375 19.6875 L 2.25 21.78125 L 4.34375 21.15625 C 6.56115 20.51055 11.30295 19.70015 13.15625 19.65625 L 14 19.625 L 14.28125 18.84375 C 14.82155 17.22275 16.5697 14.0665 18.25 12 L 18.8125 12.5625 L 19.65625 11.71875 L 20.875 10.5 L 21.75 9.625 L 20.875 8.78125 L 18.03125 5.96875 L 15.21875 3.125 L 14.375 2.28125 z M 14.375 3.96875 L 17.1875 6.8125 L 20.03125 9.625 L 18.8125 10.84375 L 18.125 10.125 C 16.0037 12.2463 13.8321 16.3162 13.125 18.4375 C 11.0038 18.4878 6.3745 19.3086 4 20 C 4.6914 17.6255 5.5125 12.9962 5.5625 10.875 C 7.6838 10.1679 11.7537 7.9963 13.875 5.875 L 13.15625 5.1875 L 14.375 3.96875 z M 10.28125 12.78125 L 6.78125 16.28125 L 7.25 16.75 L 7.71875 17.21875 L 11.21875 13.71875 L 10.75 13.25 L 10.28125 12.78125 z "
       transform="translate(-9379.308,4835.1988)"
       id="path3008" />
  </g>
</svg>
